X: 527
T: Wuge fangyang
%%abc-version 2.0
%%abcx-abcm2ps-target-version 5.9.1 (29 Sep 2008)
%%abc-creator hum2abc beta
%%abcx-conversion-date 2013/10/02 07:52:30
%%abc-edited-by Helmut Schaffrath
%%humdrum-veritas 2407532253
%%humdrum-veritas-data 2281564702
%%continueall 1
%%barnumbers 0
L: 1/8
M: 2/4
K: F
c dc2 [I:setbarnb 1]| 
c GF2 | 
G c c G | 
G DC2 | 
F G F _E | 
D C c d | 
c c c F | 
G A G D | 
C4 |]  



